X:1
T:Valses poéticos
T:Coda
T:Valses poéticos
T:Coda
T:Enrique Granados
T:OpenScore (CC0)
T:OpenScore (CC0)
T:OpenScore (CC0)
C:Enrique Granados
Z:OpenScore (CC0)
%%score { ( 1 3 ) | ( 2 4 ) }
L:1/8
Q:1/4=150
M:6/8
K:A
V:1 treble nm="Piano" snm="Pno."
V:3 treble 
V:2 bass 
V:4 bass 
V:1
!mf!"^Presto" (c/a/g/f/ A/) z/ (F.d)[DG] | (c/a/g/f/ A/) z/ (F.d)[DG] | %2
 (c/a/g/f/ A/) z/!8va(! (c'/a'/g'/f'/ a/) z/ | %3
 c''/(a''/g''/f''/ a'/) z/ c'/(a'/g'/f'/ a/)!8va)! z/ | (e/=c'/b/a/ =c/) z/ (A=f)B | %5
 (e/=c'/b/a/ =c/) z/ (A=f)B | (e/=c'/b/a/) =c/ z/!8va(! (e'/=c''/b'/a'/) c'/!8va)! z/ | %7
 e/=c'/b/a/ =c/ z/ E/=c/B/A/ C/ z/ || %8
[M:3/4][Q:1/4=150]"^Vivace" ([DF]/4^G/4A/4B/4) z ([df]/4g/4a/4b/4) z!8va(! ([f'a']/4g'/4a'/4b'/4)!8va)! z || %9
[M:6/8]"^a tempo" (=c/a/e/c/A/E/) z/ (E/A/c/e) || %10
[M:3/4][Q:1/4=150]"^Vivace" ([DF]/4G/4A/4B/4) z ([df]/4g/4a/4b/4) z!8va(! ([f'a']/4g'/4a'/4b'/4)!8va)! z || %11
[M:6/8]"^a tempo" (A/e/=c/A/E/=C/) z/ (C/E/A/c) | !>!e3 !>!a3 | !>!e'3 x3 | !>!e3 !>!a3 | %15
 !>!e'3 x2 !>!b | !>!e3 !>!a3 | !>!e'3 !>!a'3 | %18
!8va(! [g'e'']/c''/b'/g'/e'/c'/!8va)! b/g/e/"^der."G/B/c/ | %19
 B/G/E/"^der."[I:staff +1]G,/B,/C/ B,/G,/E,/C,/B,,/G,,/ |1[I:staff -1] z6 :|2 z6 || %22
!p![Q:1/4=100]"^Andante" z2 z [GBe]3 | z2"_rall." z [Aef]3 | z2 z !fermata![Gdg]3 | !fermata!z6 || %26
[M:3/4][Q:1/4=165]"^Tempo del 1. vals" (A2 ABcd | e3 e f2 | f3 f a2) | g6 | (f2 fgaf | [Ae]6) | %32
 [Gd]2 [Gd]efd | [Ac]6 | (A2 ABcd | e3 e f2) | (f3 f a2 | g6) | f2 fgab |"_rall." c'6 | b6 | %41
 a6!f! |"_a tempo" ([Aa]2 [Aa][Bb][cc'][dd'] | [ee']3 [ee'] [ff']2 | [ff']3 [ff'] [aa']2 | %45
 [gg']6) | ([ff']2 [ff'][gg'][aa'][ff']) | [ee']6 | ([dd']2 [dd'][ee'][ff'][dd']) | [cc']6 | %50
 ([Aa]2"_cresc." [Aa][Bb][cc'][dd'] | [ee']3 [ee'] [ff']2 | [ff']3 [ff'] [aa']2) | [Gg]6 | %54
 ([Ff]2 [Gf][Ag][Ba][cb] | [cc']6) |"_molto rall." [ee']6 | [ee']6 |"_a tempo" z6 | %59
 z2{/E} ([=ce]2 [=FA]2) | z2{/A} ([=f=g]2 [FG]2) | ([E=G]2 =c4) | z6 | z2{/=C} ([A=c]2 [D=F]2) | %64
"_rall" z2{/F} ([de]2 [DE]2) | ([CE]2 A4) | (A2 ABcd |"_con cadenza" e3 e f2 | f3 f c'2 | c'6) | %70
 (d2 defg) | a6 | ([DB]2 [Gd]3 [Gc] | [CAc]6) |"_a tempo" z6 | z2{/E} ([=ce]2 [=FA]2) | %76
 z2{/A} ([=f=g]2 [FG]2) | ([E=G]2 =c4) | z6 | z2{/=C} ([A=c]2 [D=F]2) | %80
 z2"_rall."{/F} ([de]2 [DE]2) | [CE]2 A4 | (A2 ABcd) | (e3 e f2 | f3 f c'2 | c'6) | (d2 defg | %87
"_dim. e molto rall." a6) | [DB]2 [Gd]3 [Gc] | [CAc]6 |] %90
V:2
 [A,,E,]2 z/[I:staff -1] E/[I:staff +1] z (B,E,) | %1
 [A,,E,]2 z/[I:staff -1] E/[I:staff +1] z (B,E,) | %2
 [A,,E,]2 z/[I:staff -1] E/[I:staff +1] z2[K:treble] z/ e/ | z2 z/ e'/ z2 z/ e/ | %4
 z2[K:bass] z/[I:staff -1] =G/[I:staff +1] z D=G, | [C,G,]2 z/[I:staff -1] =G/[I:staff +1] z D=G, | %6
 [C,G,]2 z/[I:staff -1] =G/[I:staff +1] z2[K:treble] z/ g/ | %7
 z2 z/[I:staff -1] G/[I:staff +1] z2[K:bass] z/ =G,/ ||[M:3/4] z[K:treble] E z e z e' || %9
[M:6/8] z2[K:bass] z/[I:staff -1] E/[I:staff +1] A,2 z ||[M:3/4] z[K:treble] E z e z e' || %11
[M:6/8] z2[K:bass] z/[I:staff -1] C/[I:staff +1] F,2 z | [E,,B,,] [G,B,]2 [E,,B,,] [A,B,]2 | %13
 [E,,B,,] [G,B,]2 [E,,B,,] [A,B,]2 | [E,,B,,] [G,B,]2 [E,,B,,] [A,B,]2 | %15
 [E,,B,,] [G,B,]2 [E,,B,,] [G,A,]2 | !arpeggio![E,,B,,G,] z z !arpeggio![B,,A,^D] z z | %17
 !arpeggio![E,B,G] z z[K:treble] [B,A^d] z z | [EBg] z z z z/[I:staff -1] G/B/c/ | %19
[I:staff +1][K:bass] z z/ G,/B,/C/ z3 |1 [E,,,E,,]6 :|2"^ten." !tenuto![E,,,E,,]4 [^D,,,^D,,]2 || %22
 z2 z D3 | z2 z C3 | z2 z !fermata![E,B,D]3 | !fermata!z6 ||[M:3/4] A,,2 (C2 E,2) | %27
 G,,2 (B,2 E,2) | F,,2 (A,2 C,2) | E,,2 (G,2 C,2) | (D,,2 D,2 F2) | (C2 E,2 C2 | B,2 E,2 B,2 | %33
 A,2 E,2 A,,2) | A,,2 (C2 E,2) | G,,2 (B,2 E,2) | G,,2 (A,2 C,2) | E,,2 (G,2 C,2) | (D,,2 A,2 F2) | %39
 (C,2 G,2 E2) | (E,2 D2[I:staff -1] G2) |[I:staff +1] (A,,2 C2[I:staff -1] A2) | %42
[I:staff +1] A,,2 C2 E,2 | G,,2 B,2 E,2 | F,,2 A,2 C,2 | E,,2 G,2 C,2 | D,,2 [A,DF]2 z2 | %47
 C,,2 [E,A,CE]2 z2 | B,,,2 [E,G,DE]2 z2 | A,,,2 [E,A,CE]2 z2 | A,,2 C2 E,2 | G,,2 B,2 E,2 | %52
 F,,2 A,2 C,2 | E,,2 G,2 C,2 | D,,2 [F,A,D]2 D,2 | E,,2 [E,G,CE]2 z2 | z2 [G,D]4 | z2 [E,C]4 | %58
 (A,,2 A,,B,,=C,D, | E,3 E, =F,2 | =G,3 A, B,2 | =C6) | (=F,,2 F,,=G,,A,,B,, | =C,3 C, D,2 | %64
 E,3 F, G,2 | A,6) | (A,,2 C2 E,2) | (G,,2 C2 E,2) | (F,,2 A,2 C,2) | (E,,2 G,2 C,2) | %70
 (B,,2 F,2 B,2) | (F,,2 C,2 [F,A,]2) | [B,,F,]2 [B,,E,]2 E,,2 | A,,2 !fermata!A,,,4 | %74
 (A,,2 A,,B,,C,D, | E,3 E, =F,2 | =G,3 A, B,2) | =C6 | (=F,,2 F,,=G,,A,,B,, | =C,3 C, D,2 | %80
 E,3 F, G,2 | A,6) | (A,,2"_con molta" C2 E,2) |"_cadenza" (G,,2 C2 E,2) | (F,,2 A,2 C,2) | %85
 (E,,2 G,2 C,2) | (B,,2 F,2 B,2) | (F,,2 C,2 [F,A,]2) | ([B,,F,]2 [B,,E,]2 E,,2) | %89
 A,,2 !fermata!A,,,4 |] %90
V:3
 x6 | x6 | x3!8va(! x3 | x11/2!8va)! x/ | x6 | x6 | x3!8va(! x5/2!8va)! x/ | x6 || %8
[M:3/4] x4!8va(! x!8va)! x ||[M:6/8] x6 ||[M:3/4] x4!8va(! x!8va)! x ||[M:6/8] x6 | %12
 G/A/^A/B/^B/c/ c/d/^d/e/^e/f/ | gfe (3(c/^d/c/B/A/)[db] | G/A/^A/B/^B/c/ c/d/^d/e/^e/f/ | %15
 gfe (3(c/^d/c/B/A/)[db] | G/A/^A/B/^B/c/ c/d/^d/e/"_loco"^e/f/ | %17
 g/a/^a/b/^b/c'/ c'/d'/^d'/e'/^e'/f'/ |!8va(! x3!8va)! x3 | x6 |1 x6 :|2 x6 || x6 | x6 | x6 | x6 || %26
[M:3/4] x6 | x6 | x6 | x6 | x6 | x6 | x6 | x6 | x6 | x6 | x6 | x6 | x6 | x6 | x6 | x6 | x6 | x6 | %44
 x6 | x6 | x6 | x6 | x6 | x6 | x6 | x6 | x6 | x6 | x6 | x6 | x6 | x6 | x6 | x6 | x6 | x6 | x6 | %63
 x6 | x6 | x6 | x6 | x6 | x6 | x6 | x6 | x6 | x6 | x6 | x6 | x6 | x6 | x6 | x6 | x6 | x6 | x6 | %82
 x6 | x6 | x6 | x6 | x6 | x6 | x6 | x6 |] %90
V:4
 x6 | x6 | x5[K:treble] x | x6 | x2[K:bass] x4 | x6 | x5[K:treble] x | x5[K:bass] x || %8
[M:3/4] x[K:treble] x5 ||[M:6/8] x2[K:bass] x4 ||[M:3/4] x[K:treble] x5 ||[M:6/8] x2[K:bass] x4 | %12
 x6 | x6 | x6 | x6 | x6 | x3[K:treble] x3 | x6 |[K:bass] x6 |1 x6 :|2 x6 || (D,,6 | (C,,6) | %24
 B,,,6) | x6 ||[M:3/4] x6 | x6 | x6 | x6 | x6 | x6 | x6 | x6 | x6 | x6 | x6 | x6 | x6 | x6 | x6 | %41
 x6 | x6 | x6 | x6 | x6 | x6 | x6 | x6 | x6 | x6 | x6 | x6 | x6 | x6 | x6 | E,,6 | A,,,6 | x6 | %59
 x6 | x6 | x6 | x6 | x6 | x6 | x6 | x6 | x6 | x6 | x6 | x6 | x6 | x6 | x6 | x6 | x6 | x6 | x6 | %78
 x6 | x6 | x6 | x6 | x6 | x6 | x6 | x6 | x6 | x6 | x6 | x6 |] %90

